coverage-report/icon_search-minus_dark.svg

<?xml version="1.0" encoding="utf-8"?><svg width="1792" height="1792" viewBox="0 0 1792 1792" xmlns="http://www.w3.org/2000/svg"><path fill="#BFBFC0" d="M1088 800v64q0 13-9.5 22.5t-22.5 9.5h-576q-13 0-22.5-9.5t-9.5-22.5v-64q0-13 9.5-22.5t22.5-9.5h576q13 0 22.5 9.5t9.5 22.5zm128 32q0-185-131.5-316.5t-316.5-131.5-316.5 131.5-131.5 316.5 131.5 316.5 316.5 131.5 316.5-131.5 131.5-316.5zm512 832q0 53-37.5 90.5t-90.5 37.5q-54 0-90-38l-343-342q-179 124-399 124-143 0-273.5-55.5t-225-150-150-225-55.5-273.5 55.5-273.5 150-225 225-150 273.5-55.5 273.5 55.5 225 150 150 225 55.5 273.5q0 220-124 399l343 343q37 37 37 90z"/></svg>

<svg xmlns="http://www.w3.org/2000/svg" width="1792" height="1792" viewBox="0 0 1792 1792"><path fill="#bfbfc0" d="M1088 800v64q0 13-9.5 22.5T1056 896H480q-13 0-22.5-9.5T448 864v-64q0-13 9.5-22.5T480 768h576q13 0 22.5 9.5t9.5 22.5m128 32q0-185-131.5-316.5T768 384 451.5 515.5 320 832t131.5 316.5T768 1280t316.5-131.5T1216 832m512 832q0 53-37.5 90.5T1600 1792q-54 0-90-38l-343-342q-179 124-399 124-143 0-273.5-55.5t-225-150-150-225T64 832t55.5-273.5 150-225 225-150T768 128t273.5 55.5 225 150 150 225T1472 832q0 220-124 399l343 343q37 37 37 90"/></svg>
